img/icon-download.svg

<?xml version="1.0" encoding="utf-8"?>
<!-- Generator: Adobe Illustrator 16.0.0, SVG Export Plug-In . SVG Version: 6.00 Build 0)  -->
<!DOCTYPE svg PUBLIC "-//W3C//DTD SVG 1.1//EN" "http://www.w3.org/Graphics/SVG/1.1/DTD/svg11.dtd">
<svg version="1.1" id="Layer_1" xmlns="http://www.w3.org/2000/svg" xmlns:xlink="http://www.w3.org/1999/xlink" x="0px" y="0px"
	 width="25px" height="24px" viewBox="0 0 25 24" enable-background="new 0 0 25 24" xml:space="preserve">
<title>Essentials/download-2</title>
<desc>Created with Sketch.</desc>
<g id="concepts">
	<g id="parallax-responsive" transform="translate(-553.000000, -308.000000)">
		<g id="Group-2" transform="translate(412.868869, 0.000000)">
			<g id="download-CTA" transform="translate(103.000000, 293.000000)">
				<g id="Essentials_x2F_download-2" transform="translate(38.000000, 15.000000)">
					<path id="Shape" fill="#FFFFFF" d="M22,24H2c-1.103,0-2-0.896-2-1.999h2h20h2C24,23.104,23.102,24,22,24z M12.707,17.699
						c-0.092,0.093-0.202,0.166-0.325,0.217C12.26,17.967,12.13,17.993,12,17.993c-0.13,0-0.26-0.026-0.382-0.077
						c-0.121-0.05-0.23-0.122-0.322-0.213c0-0.001-0.001-0.001-0.002-0.002l0,0c-0.001-0.001-0.001-0.001-0.002-0.002l-4.998-4.987
						c-0.392-0.39-0.392-1.022-0.002-1.413c0.391-0.392,1.023-0.39,1.414-0.002L11,14.583V0.999C11,0.447,11.447,0,12,0
						c0.553,0,1,0.447,1,0.999v13.584l3.294-3.286c0.391-0.388,1.022-0.39,1.413,0.002c0.391,0.391,0.391,1.023-0.002,1.413
						L12.707,17.699z"/>
				</g>
			</g>
		</g>
	</g>
</g>
</svg>

<?xml version="1.0" encoding="UTF-8"?>
<svg width="25px" height="24px" viewBox="0 0 25 24" version="1.1" xmlns="http://www.w3.org/2000/svg" xmlns:xlink="http://www.w3.org/1999/xlink">
    <!-- Generator: Sketch 57.1 (83088) - https://sketch.com -->
    <title>Essentials/download-2</title>
    <desc>Created with Sketch.</desc>
    <g id="concepts" stroke="none" stroke-width="1" fill="none" fill-rule="evenodd">
        <g id="parallax-responsive" transform="translate(-553.000000, -308.000000)" fill="#FFFFFF">
            <g id="Group-2" transform="translate(412.868869, 0.000000)">
                <g id="download-CTA" transform="translate(103.000000, 293.000000)">
                    <g id="Essentials/download-2" transform="translate(38.000000, 15.000000)">
                        <path d="M22,24 L2,24 C0.897,24 0,23.103 0,22.001 L0,16.003 C0,15.451 0.447,15.004 1,15.004 C1.553,15.004 2,15.451 2,16.003 L2,22.001 L22,22.001 L22,16.003 C22,15.451 22.447,15.004 23,15.004 C23.553,15.004 24,15.451 24,16.003 L24,22.001 C24,23.103 23.102,24 22,24 Z M12.708,17.699 C12.616,17.792 12.505,17.865 12.382,17.916 C12.26,17.967 12.13,17.993 12,17.993 C11.87,17.993 11.74,17.967 11.618,17.916 C11.497,17.866 11.388,17.794 11.296,17.703 C11.296,17.702 11.295,17.702 11.294,17.701 L11.294,17.701 C11.293,17.7 11.293,17.7 11.292,17.699 L6.294,12.712 C5.902,12.322 5.902,11.69 6.292,11.299 C6.683,10.907 7.315,10.909 7.706,11.297 L11,14.583 L11,0.999 C11,0.447 11.447,0 12,0 C12.553,0 13,0.447 13,0.999 L13,14.583 L16.294,11.297 C16.685,10.909 17.317,10.907 17.708,11.299 C18.098,11.69 18.098,12.322 17.706,12.712 L12.708,17.699 Z" id="Shape"></path>
                    </g>
                </g>
            </g>
        </g>
    </g>
</svg>
